gateways-e-adquirentes/cielo.svg

<svg enable-background="new 0 0 120 80" height="80" viewBox="0 0 120 80" width="120" xmlns="http://www.w3.org/2000/svg"><switch><foreignObject height="1" requiredExtensions="http://ns.adobe.com/AdobeIllustrator/10.0/" width="1"/><g><path d="m120 70c0 5.5-4.5 10-10 10h-100c-5.5 0-10-4.5-10-10v-60c0-5.5 4.5-10 10-10h100c5.5 0 10 4.5 10 10z" fill="#f5f5f5"/><path d="m110 0h-100c-5.5 0-10 4.5-10 10v60c0 5.5 4.5 10 10 10h100c5.5 0 10-4.5 10-10v-60c0-5.5-4.5-10-10-10zm0 2c4.412 0 8 3.588 8 8v60c0 4.412-3.588 8-8 8h-100c-4.412 0-8-3.588-8-8v-60c0-4.412 3.588-8 8-8z" fill="#fff"/><path d="m22.374 41.596c.09-.208.075-.435.108-.653.54-3.5 3.008-7.043 7.035-8.15 1.323-.364 2.666-.429 4.025-.276.905.102 1.787.304 2.656.573.108.033.149.058.093.185-.509 1.162-1.011 2.327-1.51 3.493-.052.122-.096.147-.228.098-1.336-.491-2.697-.605-4.04-.082-2.241.873-3.556 2.552-3.951 4.901-.422 2.509 1.053 4.862 3.044 5.965 2.225 1.232 4.37 1.003 6.416-.453.183-.131.355-.279.526-.425.066-.056.104-.083.18-.004.89.936 1.783 1.87 2.68 2.799.106.11.016.145-.044.199-1.409 1.27-3.047 2.095-4.904 2.466-2.136.426-4.217.229-6.209-.674-2.273-1.03-3.877-2.733-4.896-4.996-.493-1.096-.819-2.242-.946-3.441-.003-.026-.007-.049-.036-.057.001-.49.001-.979.001-1.468z"/><path d="m97.626 42.913c-.08.231-.067.476-.099.714-.136 1.03-.41 2.022-.773 2.992-.046.123-.09.146-.212.087-1.147-.546-2.296-1.088-3.448-1.623-.134-.062-.133-.121-.086-.24.321-.811.516-1.654.502-2.527-.037-2.336-1.093-4.082-3.154-5.173-2.173-1.15-4.76-.809-6.603.817-.117.103-.171.101-.275-.015-.848-.949-1.702-1.891-2.557-2.834-.069-.076-.12-.122-.009-.218 1.443-1.243 3.094-2.053 4.976-2.358 2.038-.33 4.01-.07 5.892.782 2.318 1.05 4.038 2.711 5.067 5.056.424.966.66 1.98.743 3.031.003.04-.016.09.036.116z" fill="#1dafec"/><path d="m43.67 27.524c.175.043.353.075.525.129 1.245.395 1.996 1.553 1.882 2.891-.1 1.179-1.088 2.187-2.322 2.368-1.678.247-3.169-1.069-3.127-2.761.031-1.277 1.014-2.391 2.282-2.59.042-.007.089.004.121-.037z" fill="#1dafec"/><path d="m57.896 32.394c4.469 0 8.182 2.686 9.665 6.995.065.189.113.384.185.571.054.139.006.188-.12.242-3.492 1.48-6.983 2.964-10.473 4.448-2.461 1.047-4.922 2.093-7.381 3.146-.152.065-.219.041-.303-.098-1.139-1.879-1.699-3.906-1.541-6.107.286-4.001 3.094-7.906 7.565-8.918.792-.181 1.592-.275 2.403-.279zm4.486 6.251c-.028-.038-.046-.064-.065-.088-2.08-2.583-5.964-2.855-8.378-.581-1.022.963-1.59 2.167-1.839 3.533-.095.523-.139 1.05-.121 1.603 3.478-1.493 6.935-2.977 10.403-4.467z"/><path d="m69.68 37.945c0-3.304.002-6.609-.004-9.913 0-.176.049-.212.216-.211 1.129.007 2.257.007 3.386 0 .148-.001.198.022.198.187.012 4.082.031 8.163.049 12.245.01 2.276.021 4.552.025 6.828 0 .14.04.207.167.264.984.433 1.963.876 2.946 1.311.123.054.165.092.106.238-.467 1.139-.925 2.281-1.38 3.425-.052.13-.095.142-.225.091-.768-.301-1.545-.577-2.31-.885-.789-.317-1.526-.726-2.121-1.352-.607-.639-.931-1.404-.986-2.278-.053-.851-.026-1.705-.028-2.557-.005-2.464-.002-4.928-.002-7.393-.012 0-.024 0-.037 0z"/><path d="m87.38 52.476c-2.754-.048-5.088-1.074-6.999-3.048-1.531-1.582-2.452-3.478-2.761-5.656-.277-1.951.022-3.829.793-5.638.038-.088.068-.11.16-.064 1.189.598 2.379 1.196 3.572 1.785.134.066.074.129.039.203-.399.851-.621 1.742-.595 2.687.035 1.258.48 2.364 1.3 3.304 1.341 1.537 3.046 2.337 5.088 2.345 1.359.005 2.548-.47 3.511-1.453.077-.078.114-.098.198-.003.839.94 1.683 1.876 2.528 2.809.073.081.069.118-.016.185-1.554 1.212-3.27 2.074-5.227 2.409-.524.09-1.055.139-1.591.135z"/><path d="m45.282 45.528c0 2.106-.002 4.213.004 6.319.001.189-.04.249-.242.247-1.141-.011-2.282-.008-3.423-.002-.136.001-.177-.026-.178-.172-.023-4.074-.052-8.149-.076-12.223-.001-.137-.047-.194-.166-.246-1.002-.436-2.001-.881-3.004-1.316-.132-.057-.142-.109-.087-.232.505-1.143 1.003-2.289 1.506-3.432.027-.061.022-.17.16-.116.921.354 1.869.638 2.758 1.073.761.372 1.46.827 1.992 1.502.541.685.79 1.474.793 2.338.008 2.087.002 4.175.002 6.262-.011-.002-.025-.002-.039-.002z"/><path d="m65.029 49.634c-.51.401-1.034.774-1.578 1.119-1.035.657-2.125 1.194-3.322 1.489-1.577.389-3.132.259-4.673-.201-.943-.281-1.844-.666-2.729-1.094-.118-.057-.114-.101-.052-.201.664-1.054 1.325-2.109 1.98-3.168.074-.119.127-.127.247-.066.801.411 1.638.712 2.538.824 1.432.178 2.716-.188 3.872-1.036.233-.171.455-.354.663-.554.054-.052.09-.088.164-.013.958.968 1.92 1.93 2.89 2.901z"/></g></switch></svg>

<?xml version="1.0" encoding="UTF-8"?>
<svg width="120px" height="80px" viewBox="0 0 120 80" version="1.1" xmlns="http://www.w3.org/2000/svg" xmlns:xlink="http://www.w3.org/1999/xlink">
    <!-- Generator: Sketch 52.4 (67378) - http://www.bohemiancoding.com/sketch -->
    <title>cielo</title>
    <desc>Created with Sketch.</desc>
    <g id="Page-1" stroke="none" stroke-width="1" fill="none" fill-rule="evenodd">
        <g id="cielo">
            <path d="M120,70 C120,75.5 115.5,80 110,80 L10,80 C4.5,80 0,75.5 0,70 L0,10 C0,4.5 4.5,0 10,0 L110,0 C115.5,0 120,4.5 120,10 L120,70 Z" id="Path" fill="#F5F5F5"></path>
            <path d="M110,0 L10,0 C4.5,0 0,4.5 0,10 L0,70 C0,75.5 4.5,80 10,80 L110,80 C115.5,80 120,75.5 120,70 L120,10 C120,4.5 115.5,0 110,0 Z M110,2 C114.412,2 118,5.588 118,10 L118,70 C118,74.412 114.412,78 110,78 L10,78 C5.588,78 2,74.412 2,70 L2,10 C2,5.588 5.588,2 10,2 L110,2 Z" id="Shape" fill="#D0D0D0" fill-rule="nonzero"></path>
            <path d="M22.374,41.596 C22.464,41.388 22.449,41.161 22.482,40.943 C23.022,37.443 25.49,33.9 29.517,32.793 C30.84,32.429 32.183,32.364 33.542,32.517 C34.447,32.619 35.329,32.821 36.198,33.09 C36.306,33.123 36.347,33.148 36.291,33.275 C35.782,34.437 35.28,35.602 34.781,36.768 C34.729,36.89 34.685,36.915 34.553,36.866 C33.217,36.375 31.856,36.261 30.513,36.784 C28.272,37.657 26.957,39.336 26.562,41.685 C26.14,44.194 27.615,46.547 29.606,47.65 C31.831,48.882 33.976,48.653 36.022,47.197 C36.205,47.066 36.377,46.918 36.548,46.772 C36.614,46.716 36.652,46.689 36.728,46.768 C37.618,47.704 38.511,48.638 39.408,49.567 C39.514,49.677 39.424,49.712 39.364,49.766 C37.955,51.036 36.317,51.861 34.46,52.232 C32.324,52.658 30.243,52.461 28.251,51.558 C25.978,50.528 24.374,48.825 23.355,46.562 C22.862,45.466 22.536,44.32 22.409,43.121 C22.406,43.095 22.402,43.072 22.373,43.064 C22.374,42.574 22.374,42.085 22.374,41.596 Z" id="Path" fill="#000000"></path>
            <path d="M97.626,42.913 C97.546,43.144 97.559,43.389 97.527,43.627 C97.391,44.657 97.117,45.649 96.754,46.619 C96.708,46.742 96.664,46.765 96.542,46.706 C95.395,46.16 94.246,45.618 93.094,45.083 C92.96,45.021 92.961,44.962 93.008,44.843 C93.329,44.032 93.524,43.189 93.51,42.316 C93.473,39.98 92.417,38.234 90.356,37.143 C88.183,35.993 85.596,36.334 83.753,37.96 C83.636,38.063 83.582,38.061 83.478,37.945 C82.63,36.996 81.776,36.054 80.921,35.111 C80.852,35.035 80.801,34.989 80.912,34.893 C82.355,33.65 84.006,32.84 85.888,32.535 C87.926,32.205 89.898,32.465 91.78,33.317 C94.098,34.367 95.818,36.028 96.847,38.373 C97.271,39.339 97.507,40.353 97.59,41.404 C97.593,41.444 97.574,41.494 97.626,41.52 L97.626,42.913 Z" id="Path" fill="#1DAFEC"></path>
            <path d="M43.67,27.524 C43.845,27.567 44.023,27.599 44.195,27.653 C45.44,28.048 46.191,29.206 46.077,30.544 C45.977,31.723 44.989,32.731 43.755,32.912 C42.077,33.159 40.586,31.843 40.628,30.151 C40.659,28.874 41.642,27.76 42.91,27.561 C42.952,27.554 42.999,27.565 43.031,27.524 L43.67,27.524 Z" id="Path" fill="#1DAFEC"></path>
            <path d="M57.896,32.394 C62.365,32.394 66.078,35.08 67.561,39.389 C67.626,39.578 67.674,39.773 67.746,39.96 C67.8,40.099 67.752,40.148 67.626,40.202 C64.134,41.682 60.643,43.166 57.153,44.65 C54.692,45.697 52.231,46.743 49.772,47.796 C49.62,47.861 49.553,47.837 49.469,47.698 C48.33,45.819 47.77,43.792 47.928,41.591 C48.214,37.59 51.022,33.685 55.493,32.673 C56.285,32.492 57.085,32.398 57.896,32.394 Z M62.382,38.645 C62.354,38.607 62.336,38.581 62.317,38.557 C60.237,35.974 56.353,35.702 53.939,37.976 C52.917,38.939 52.349,40.143 52.1,41.509 C52.005,42.032 51.961,42.559 51.979,43.112 C55.457,41.619 58.914,40.135 62.382,38.645 Z" id="Shape" fill="#000000" fill-rule="nonzero"></path>
            <path d="M69.68,37.945 C69.68,34.641 69.682,31.336 69.676,28.032 C69.676,27.856 69.725,27.82 69.892,27.821 C71.021,27.828 72.149,27.828 73.278,27.821 C73.426,27.82 73.476,27.843 73.476,28.008 C73.488,32.09 73.507,36.171 73.525,40.253 C73.535,42.529 73.546,44.805 73.55,47.081 C73.55,47.221 73.59,47.288 73.717,47.345 C74.701,47.778 75.68,48.221 76.663,48.656 C76.786,48.71 76.828,48.748 76.769,48.894 C76.302,50.033 75.844,51.175 75.389,52.319 C75.337,52.449 75.294,52.461 75.164,52.41 C74.396,52.109 73.619,51.833 72.854,51.525 C72.065,51.208 71.328,50.799 70.733,50.173 C70.126,49.534 69.802,48.769 69.747,47.895 C69.694,47.044 69.721,46.19 69.719,45.338 C69.714,42.874 69.717,40.41 69.717,37.945 C69.705,37.945 69.693,37.945 69.68,37.945 Z" id="Path" fill="#000000"></path>
            <path d="M87.38,52.476 C84.626,52.428 82.292,51.402 80.381,49.428 C78.85,47.846 77.929,45.95 77.62,43.772 C77.343,41.821 77.642,39.943 78.413,38.134 C78.451,38.046 78.481,38.024 78.573,38.07 C79.762,38.668 80.952,39.266 82.145,39.855 C82.279,39.921 82.219,39.984 82.184,40.058 C81.785,40.909 81.563,41.8 81.589,42.745 C81.624,44.003 82.069,45.109 82.889,46.049 C84.23,47.586 85.935,48.386 87.977,48.394 C89.336,48.399 90.525,47.924 91.488,46.941 C91.565,46.863 91.602,46.843 91.686,46.938 C92.525,47.878 93.369,48.814 94.214,49.747 C94.287,49.828 94.283,49.865 94.198,49.932 C92.644,51.144 90.928,52.006 88.971,52.341 C88.447,52.431 87.916,52.48 87.38,52.476 Z" id="Path" fill="#000000"></path>
            <path d="M45.282,45.528 C45.282,47.634 45.28,49.741 45.286,51.847 C45.287,52.036 45.246,52.096 45.044,52.094 C43.903,52.083 42.762,52.086 41.621,52.092 C41.485,52.093 41.444,52.066 41.443,51.92 C41.42,47.846 41.391,43.771 41.367,39.697 C41.366,39.56 41.32,39.503 41.201,39.451 C40.199,39.015 39.2,38.57 38.197,38.135 C38.065,38.078 38.055,38.026 38.11,37.903 C38.615,36.76 39.113,35.614 39.616,34.471 C39.643,34.41 39.638,34.301 39.776,34.355 C40.697,34.709 41.645,34.993 42.534,35.428 C43.295,35.8 43.994,36.255 44.526,36.93 C45.067,37.615 45.316,38.404 45.319,39.268 C45.327,41.355 45.321,43.443 45.321,45.53 C45.31,45.528 45.296,45.528 45.282,45.528 Z" id="Path" fill="#000000"></path>
            <path d="M65.029,49.634 C64.519,50.035 63.995,50.408 63.451,50.753 C62.416,51.41 61.326,51.947 60.129,52.242 C58.552,52.631 56.997,52.501 55.456,52.041 C54.513,51.76 53.612,51.375 52.727,50.947 C52.609,50.89 52.613,50.846 52.675,50.746 C53.339,49.692 54,48.637 54.655,47.578 C54.729,47.459 54.782,47.451 54.902,47.512 C55.703,47.923 56.54,48.224 57.44,48.336 C58.872,48.514 60.156,48.148 61.312,47.3 C61.545,47.129 61.767,46.946 61.975,46.746 C62.029,46.694 62.065,46.658 62.139,46.733 C63.097,47.701 64.059,48.663 65.029,49.634 Z" id="Path" fill="#000000"></path>
        </g>
    </g>
</svg>
